packages/astro-components-stencil/src/icons/redo.svg

<svg width="24" height="24" viewBox="0 0 24 24" fill="none" xmlns="http://www.w3.org/2000/svg">
<path d="M18.4 10.6C16.55 8.99 14.15 8 11.5 8C7.33998 8 3.75998 10.42 2.05998 13.93C1.73998 14.6 2.09998 15.4 2.80998 15.64C3.39998 15.84 4.03998 15.56 4.30998 15C5.60998 12.34 8.33998 10.5 11.5 10.5C13.45 10.5 15.23 11.22 16.62 12.38L14.71 14.29C14.08 14.92 14.52 16 15.41 16H21C21.55 16 22 15.55 22 15V9.41C22 8.52 20.92 8.07 20.29 8.7L18.4 10.6Z" fill="black"/>
</svg>

<svg xmlns="http://www.w3.org/2000/svg" viewBox="0 0 24 24"><g xmlns="http://www.w3.org/2000/svg" id="redo" fill-rule="nonzero">
            <path d="M18.4 10.6C16.55 8.99 14.15 8 11.5 8c-4.16 0-7.74 2.42-9.44 5.93-.32.67.04 1.47.75 1.71.59.2 1.23-.08 1.5-.64 1.3-2.66 4.03-4.5 7.19-4.5 1.95 0 3.73.72 5.12 1.88l-1.91 1.91c-.63.63-.19 1.71.7 1.71H21c.55 0 1-.45 1-1V9.41c0-.89-1.08-1.34-1.71-.71l-1.89 1.9z"/>
        </g></svg>
